X:105
T:Tea for Two. JJo8.105
B:J.Johnson Choice Collection Vol 8 1758
Z:vmp.Simon Wilson 2013 www.village-music-project.org.uk
M:2/4
L:1/8
Q:1/4=100
K:G
|:g2(b/a/g/f/)|gdBG|ce- ed/c/|BGFD|GB- BA/G/|(c/d/e/f/)g2|fdA^c|d2D2:|
|:de=f2|ecBc|e^fg2|fd^cd|abc'2|bfge|dBcA|G2G2:|
